X:1073
T:Miss Douglas's Fancy.
M:6/8
L:1/8
Q:3/8=104
Z:Jack Campin * www.campin.me.uk * 2009
K:G
D   |G2G GBd|A2c e2g|dBG AGA| G2G G2
D   |G2G GBd|A2c e2g|dBG AGA| G3- G2:|
B/c/|ded dcB|c3  e3 |ABA afd|(G3  F2)
D   |G2B A2c|B2d e2g|dBG AGA| G3- G2:|

